X: 240
T:Macintosh's Hornpipe. JaW.239
M:C|
Q:180
S:James Winder Ms, Lancashire, 1835-41
R:Hornpipe
O:England
A:Wyresdale,Lancashire
H:1/8
Z:vmp.Chris Partington, Aug 2004
K:G
D2G2 BABG|AcBd cBAG|D2G2 BABG|AcBd c2g2|!
D2G2 BABG|AcBd c2BA|BdcB AcBA|BGAF G4:|!
|:efgd Bdg2|G2FG ABA2|(ef)(gf) (ef)g2|G2FG ABA2|!
efgd BdeG|FGAB c2BA|BdcB AcBA|BGAF G4:|]
